**kern	**kern	**dynam
*part1	*part1	*part1
*staff2	*staff1	*
*I"Piano	*	*
*clefF4	*clefG2	*
*k[b-]	*k[b-]	*
*M2/4	*M2/4	*
=1	=1	=1
*	*^	*
4F	4cc	4a	mf
4r	4a	4f	.
=	=	=	=
4C	4b-	4g	.
4r	4g	4e	.
=	=	=	=
4F	4a	4f	.
4BB-	4b-	4g	.
=	=	=	=
4C	8aL	8fL	.
.	8gJ	8eJ	.
4CC	4r	4rgyy	.
=	=	=	=
4c	4g	4e	p
4c	4g	4e	.
=	=	=	=
4Bn	4a-X	4f	.
4c	4g	4e	.
=	=	=	=
4c	8gL	4e	.
.	8ccJ	.	.
4c	8ccL	8eL	.
.	8b-J	8gJ	.
*	*v	*v	*
=	=	=
*-	*-	*-
!!!system-decoration: {(s1,s2)}
